assets/icons/link.svg

<svg width="19" height="18" viewBox="0 0 19 18" fill="none" xmlns="http://www.w3.org/2000/svg">
<path fill-rule="evenodd" clip-rule="evenodd" d="M12.2852 6.59516C12.5781 6.88805 12.5781 7.36293 12.2852 7.65585L8.53521 11.4058C8.24232 11.6987 7.76745 11.6987 7.47455 11.4058C7.18166 11.1129 7.18166 10.6381 7.47455 10.3451L11.2246 6.59516C11.5174 6.30226 11.9923 6.30226 12.2852 6.59516Z" fill="white" fill-opacity="0.5"/>
<path fill-rule="evenodd" clip-rule="evenodd" d="M9.34956 2.87828C11.1866 1.04123 14.1651 1.04123 16.0021 2.87828C17.8392 4.71533 17.8392 7.6938 16.0021 9.53085L14.1602 11.3727C13.8673 11.6656 13.3924 11.6656 13.0996 11.3727C12.8067 11.0798 12.8067 10.6049 13.0996 10.3121L14.9414 8.47013C16.1927 7.2189 16.1927 5.1902 14.9414 3.93894C13.6902 2.68768 11.6615 2.68768 10.4102 3.93894L8.56836 5.78082C8.27544 6.07372 7.80056 6.07372 7.50767 5.78082C7.21477 5.48793 7.21477 5.01305 7.50767 4.72016L9.34956 2.87828ZM6.66022 6.62828C6.95311 6.92117 6.95311 7.39604 6.66022 7.68893L4.81833 9.53085C3.56707 10.7821 3.56707 12.8108 4.81833 14.062C6.06959 15.3133 8.09829 15.3133 9.34956 14.062L11.1914 12.2201C11.4844 11.9273 11.9592 11.9273 12.2521 12.2201C12.545 12.5131 12.545 12.9879 12.2521 13.2809L10.4102 15.1227C8.57316 16.9598 5.59472 16.9598 3.75767 15.1227C1.92062 13.2857 1.92062 10.3072 3.75767 8.47013L5.59955 6.62828C5.89245 6.33539 6.36732 6.33539 6.66022 6.62828Z" fill="white" fill-opacity="0.5"/>
</svg>

<svg xmlns="http://www.w3.org/2000/svg" width="19" height="18" fill="none" viewBox="0 0 19 18"><path fill="#fff" fill-opacity=".5" fill-rule="evenodd" d="M12.285 6.595a.75.75 0 0 1 0 1.06l-3.75 3.75a.75.75 0 1 1-1.06-1.06l3.75-3.75a.75.75 0 0 1 1.06 0" clip-rule="evenodd"/><path fill="#fff" fill-opacity=".5" fill-rule="evenodd" d="M9.35 2.878a4.704 4.704 0 1 1 6.652 6.653l-1.842 1.842a.75.75 0 1 1-1.06-1.06l1.84-1.843a3.204 3.204 0 1 0-4.53-4.531L8.567 5.78a.75.75 0 0 1-1.06-1.06zm-2.69 3.75a.75.75 0 0 1 0 1.06L4.818 9.532a3.204 3.204 0 1 0 4.532 4.531l1.841-1.842a.75.75 0 0 1 1.061 1.06l-1.842 1.843A4.704 4.704 0 1 1 3.758 8.47L5.6 6.628a.75.75 0 0 1 1.06 0" clip-rule="evenodd"/></svg>
